icons/bandage.svg

<svg width="24" height="24" viewBox="0 0 24 24" fill="none" xmlns="http://www.w3.org/2000/svg">
<path fill-rule="evenodd" clip-rule="evenodd" d="M16 4.05029C14.9525 4.05029 13.9478 4.46643 13.2071 5.20715L5.20712 13.2071C4.4664 13.9479 4.05026 14.9525 4.05026 16C4.05026 17.0476 4.4664 18.0522 5.20712 18.7929C5.94784 19.5337 6.95247 19.9498 8.00001 19.9498C9.04755 19.9498 10.0522 19.5337 10.7929 18.7929L18.7929 10.7929C19.5336 10.0522 19.9498 9.04758 19.9498 8.00004C19.9498 6.9525 19.5336 5.94787 18.7929 5.20715C18.0522 4.46643 17.0475 4.05029 16 4.05029ZM11.7929 3.79293C12.9087 2.67714 14.422 2.05029 16 2.05029C17.578 2.05029 19.0913 2.67714 20.2071 3.79293C21.3229 4.90873 21.9498 6.42207 21.9498 8.00004C21.9498 9.57801 21.3229 11.0914 20.2071 12.2071L12.2071 20.2071C11.0913 21.3229 9.57798 21.9498 8.00001 21.9498C6.42204 21.9498 4.9087 21.3229 3.7929 20.2071C2.67711 19.0914 2.05026 17.578 2.05026 16C2.05026 14.4221 2.67711 12.9087 3.7929 11.7929L11.7929 3.79293ZM12 9.00004C12.5523 9.00004 13 9.44776 13 10V10.01C13 10.5623 12.5523 11.01 12 11.01C11.4477 11.01 11 10.5623 11 10.01V10C11 9.44776 11.4477 9.00004 12 9.00004ZM10 11C10.5523 11 11 11.4478 11 12V12.01C11 12.5623 10.5523 13.01 10 13.01C9.44773 13.01 9.00001 12.5623 9.00001 12.01V12C9.00001 11.4478 9.44773 11 10 11ZM14 11C14.5523 11 15 11.4478 15 12V12.01C15 12.5623 14.5523 13.01 14 13.01C13.4477 13.01 13 12.5623 13 12.01V12C13 11.4478 13.4477 11 14 11ZM12 13C12.5523 13 13 13.4478 13 14V14.01C13 14.5623 12.5523 15.01 12 15.01C11.4477 15.01 11 14.5623 11 14.01V14C11 13.4478 11.4477 13 12 13Z" fill="black"/>
</svg>

<svg
  width="24"
  height="24"
  viewBox="0 0 24 24"
  xmlns="http://www.w3.org/2000/svg"
>
  <path
    fill-rule="evenodd"
    clip-rule="evenodd"
    d="M16 4.05a3.95 3.95 0 0 0-2.793 1.157l-8 8a3.95 3.95 0 0 0 5.586 5.586l8-8A3.95 3.95 0 0 0 16 4.05zm-4.207-.257a5.95 5.95 0 1 1 8.414 8.414l-8 8a5.95 5.95 0 1 1-8.414-8.414l8-8zM12 9a1 1 0 0 1 1 1v.01a1 1 0 1 1-2 0V10a1 1 0 0 1 1-1zm-2 2a1 1 0 0 1 1 1v.01a1 1 0 1 1-2 0V12a1 1 0 0 1 1-1zm4 0a1 1 0 0 1 1 1v.01a1 1 0 1 1-2 0V12a1 1 0 0 1 1-1zm-2 2a1 1 0 0 1 1 1v.01a1 1 0 1 1-2 0V14a1 1 0 0 1 1-1z"
  />
</svg>
